assets/images/v4/logo-coca.svg

<svg fill="none" height="25" viewBox="0 0 77 25" width="77" xmlns="http://www.w3.org/2000/svg"><path d="m33.1539 24.638c-1.8308-1.2837-4.0614-1.8519-6.0921-1.7677-2.0517.0842-2.9671 1.6098-2.9671 1.6098-.9259-1.6098-2.7462-2.5988-5.566-2.5778-4.5559.0526-9.08023 2.157-12.66813 2.157s-5.9447577-2.157-5.86058412-5.9974c.14730412-6.7234 5.82902412-12.78387 10.07981412-15.50899 2.4305-1.567731 4.4822-2.041207 5.8185-1.883382.9785.105217 2.1464 1.231042 1.4099 2.893472-1.0837 2.43051-2.5884 2.2306-2.5357 1.06269.0315-.75756.5366-1.23104.9153-1.48356.242-.16835.6629-.21044.8839-.22096.2104-.17887.3787-1.51512-1.3679-1.07321s-3.8509 2.15695-5.86054 4.36651c-2.00965 2.22008-5.13459 6.41823-5.90268 10.81633-.35774 2.0517-.11574 5.7659 4.71372 5.7238 4.1035-.0316 10.164-2.7357 15.7194-2.6831 2.157.0211 4.0404.5998 5.5029 1.5047 1.4415.8838 3.167 2.1779 3.7773 3.0618zm1.3152-12.1947h.8312s-4.2087 6.0921-6.5971 5.8185c-1.3257-.1473-.9364-1.7992-.9364-1.7992s-1.8729 2.1885-3.5774 1.7466c-1.5572-.3998-.5472-2.9882-.5472-2.9882-.1788.0737-3.5458 3.872-5.9026 2.9566-2.4726-.9469-1.189-4.1245-.7155-5.0819.3893-.8102.8417-1.5888.8417-1.5888s-.3787.1052-.6102.1578c-.2315.0631-.5998.1263-.5998.1263s-1.1679 1.9044-1.8833 2.8514c-.7155.9469-3.7563 4.2086-5.54498 3.5563-1.78869-.6524-1.34678-3.1565-.3367-5.1451 1.63088-3.23019 5.50288-7.19687 7.82818-6.60766 2.3568.59974.4103 4.42966.4103 4.42966s.463.0631 1.5888-.705c1.6203-1.10475 3.7562-4.07187 6.071-3.72466 1.0838.15783 2.0938 1.27313.7155 3.38799-.4419.68387-1.189 1.28367-1.7571.68387-.3473-.3682-.0421-1.05213.3367-1.51508.526-.66287 1.252-.56817 1.252-.56817s.3788-.87331-.5892-.86278c-.7891.02104-2.7777 1.84129-3.9035 3.70363-1.0312 1.694-2.5884 4.598-1.0206 5.2293 1.4414.5787 4.1666-2.6725 5.4397-4.3665 1.2731-1.7045 4.1561-5.566 6.5655-5.7133.8207-.05261 1.3258.70495 1.3258.70495l.2735-.44191h2.42s-4.5559 7.61776-4.9136 8.18586c-.2841.4525-.6524 1.4731.3788.9049 1.0311-.5682 3.1775-3.3249 3.1775-3.3249m-18.7707-.7786s-.6418-.1894-1.2416-.5681c-.5892-.3788-.8627-.947-.8943-.9891-.021-.0421-.0421 0-.0736.0211-.0211.0315-.1474.1999-1.0101 1.4625-.8628 1.2626-2.1359 3.8614-.947 4.3034.7681.284 2.0623-1.0627 2.7567-1.9571.6418-.8312 1.4099-2.0938 1.4415-2.1675.0315-.0841 0-.0946-.0421-.1157m.968-4.04033c-.6418-.48399-2.2517.64183-2.2622 1.78869-.0105 1.16794 1.4625 1.50464 1.6414 1.51514 0 0 .1683.0421.2315-.0947.0421-.0842.242-.4524.4629-1.03113.221-.58922.5051-1.72556-.0841-2.178m12.3209 6.33403c.9785-1.3362 3.6615-6.0289 3.6615-6.0289s-.0421-.32617-.3577-.34721c-.3683-.02105-.9891.11574-2.2306 1.6519-1.2311 1.54671-2.1885 2.77771-2.883 4.06141-.768 1.3994-1.1047 2.3779-.6628 2.6514.1262.0737.3156.0842.4629.0421.2841-.0736.6629-.3577 1.1785-.9574.242-.2736.5155-.6419.8312-1.0838m10.8689-7.25996h-2.3043l-1.2941 2.10434h2.2937l1.2942-2.10434zm30.1236 15.64576c-.2315 0-.4208.0842-.5892.242-.1578.1684-.242.3578-.242.5892 0 .2315.0842.4314.242.5998.1578.1578.3577.242.5892.242s.4314-.0842.5892-.242c.1684-.1684.242-.3683.242-.5998 0-.2314-.0736-.4208-.242-.5892-.1683-.1578-.3577-.242-.5892-.242zm.968.8312c0 .2736-.0947.4945-.2841.6839s-.4103.2841-.6839.2841c-.2735 0-.4945-.0947-.6839-.2841s-.2841-.4208-.2841-.6839c0-.263.0947-.4945.2946-.6734.1894-.1893.4104-.284.6839-.284.2736 0 .4946.0947.684.284.1893.1894.284.4104.284.6734m-.7154-.2104c0-.0737-.0211-.1263-.0737-.1578-.0421-.0316-.1262-.0421-.2209-.0421h-.1684v.3893h.1684c.0841 0 .1473 0 .1893-.0211.0632-.0315.1053-.0841.1053-.1683zm-.6419-.3262h.3683c.1368 0 .2315.0105.2946.0421.1052.0526.1684.1368.1684.2736 0 .0947-.0421.1683-.1053.2104-.0315.021-.0841.0421-.1578.0526.0842.0105.1473.0421.1789.1052.0421.0526.0631.1158.0631.1684v.0736.0737.0526l-.1789.0105s0-.0105 0-.021v-.1263c0-.1157-.0315-.1999-.1052-.242-.0315-.0316-.1052-.0421-.1999-.0421h-.1473v.4209h-.1894v-1.0627zm4.1666-19.71765c-1.694 1.09426-4.0508 2.0833-6.313 1.86234-.5682.58922-1.1784 1.27313-1.7992 2.02017 3.9246.76808 7.3442-1.65191 9.1749-3.72468 1.1364-1.29417 1.7045-2.441039 1.7045-2.441039s-1.0837 1.199479-2.7672 2.283209zm-6.7128 17.81325c-.3262.5156-.6944 1.5151.3788.8943 1.3047-.7575 3.167-3.5773 3.167-3.5773h.8417s-1.1047 1.7571-2.5567 3.3564c-1.3258 1.473-2.9461 2.8093-4.0825 2.6725-1.3362-.1578-.9153-1.9044-.9153-1.9044s-1.9045 2.0307-3.2197 1.8834c-1.7782-.2-1.231-2.399-1.231-2.399s-2.0097 2.4726-3.3775 2.399c-2.1464-.1263-1.6098-2.7462-1.0206-4.577.3262-.9785.6208-1.7571.6208-1.7571s-.221.0631-.6734.1262c-.242.0316-.6734.0632-.6734.0632s-.8943 1.5782-1.6098 2.5252c-.7155.9469-3.7563 4.2192-5.5449 3.5668-1.6625-.5997-1.1153-3.1354-.1474-5.1451 1.3994-2.9355 5.3556-7.1547 7.6388-6.6076 2.3569.5682.0526 4.8821.0526 4.8821s0 .0105.0211.021c.0526.0211.1683.0316.4524-.021.4524-.0842.8628-.2631.8628-.2631s2.3779-4.9767 5.0083-8.23846c2.6199-3.25121 7.8492-8.859278 9.9114-7.50198.5051.32617.2736 1.48356-.3998 2.87243-.2946.09469-.6102.17887-.9364.242.4524-.8207.7575-1.51513.8417-1.99913.3052-1.683471-3.6194 1.86234-6.4182 5.68172-2.7988 3.81942-4.4928 7.28102-4.4928 7.28102s.5682-.3262 1.452-1.0311c.9259-.7471 2.1885-1.9045 3.5669-3.3354.9259-.95748 2.0201-2.15696 3.0302-3.49321.3052-.01052.5998-.04209.8944-.0947-1.1364 1.52565-2.3253 2.92501-3.3459 3.95621-1.1153 1.1258-2.3253 2.3463-3.3775 3.2406-1.673 1.3994-2.9671 2.2096-2.9671 2.2096s-2.4621 4.9452-1.1258 5.2714c.7891.1788 2.3358-2.1991 2.3358-2.1991s2.0201-3.0933 3.2407-4.4717c1.6624-1.8939 3.0933-2.9882 4.5243-3.0092.8312-.0105 1.3257.8733 1.3257.8733l.3893-.6103h2.42s-4.5033 7.6493-4.861 8.228m-13.573-3.0092s-.5682-.2525-1.1048-.7049c-.5471-.4525-.8207-.968-.8417-1.0101-.0211-.0421-.0421-.0106-.0737.021-.0315.0316-.1262.1158-.989 1.3889-.8523 1.2626-2.178 3.872-.9785 4.3244.7575.2841 2.0412-1.0627 2.7461-1.9465.6419-.8312 1.2416-1.8834 1.2837-1.9571.0421-.0736 0-.0946-.0316-.1157m1.2205-2.1359c.221-.5787.5051-1.7256-.0947-2.1675-.6313-.484-2.2411.6419-2.2516 1.7887 0 1.1785 1.1469 1.7151 1.4204 1.7782.1578.0421.2105.0421.2841-.0842.0526-.0842.4104-.726.6418-1.3047m13.8676-1.6098c.0526-.0842.0737-.1683.0737-.1683s-.0421-.3262-.3577-.3473c-.3788-.021-.8734.0526-2.2096 1.5257-1.3363 1.473-2.1359 2.7567-2.8409 4.0298-.768 1.3994-1.0627 2.441-.6313 2.7041.1263.0736.3052.0842.463.0421.2946-.0737.6418-.3473 1.1469-.947.242-.2736.505-.6629.8206-1.1048.8733-1.1994 3.0934-4.9873 3.5353-5.7553m5.2083-11.04783c-1.694 1.09426-4.0509 2.0833-6.313 1.86234-.5682.58922-1.1785 1.27313-1.7993 2.02017 3.9246.76809 7.3442-1.65191 9.175-3.72468 1.1363-1.29417 1.7045-2.441037 1.7045-2.441037s-1.0838 1.199477-2.7672 2.283207zm-11.0057 2.84086c-1.8624-.94695-3.2091-2.11486-4.619-2.84086-1.3468-.69443-2.2201-.97852-3.3039-.83121-.1788.02104-.4524.10522-.4524.10522s.5577 1.90442-1.6624 5.12406c-2.2622 3.26176-4.3034 3.24066-4.8926 2.33582-.6103-.93643.1789-2.87242 1.4941-4.57694 1.3783-1.78869 3.7878-3.28277 3.7878-3.28277s-.7681-.46295-2.662.59974c-1.8413 1.04165-5.0294 3.53529-7.9755 7.73341-2.946 4.1982-3.5353 6.5025-3.9561 8.3227-.4314 1.8203-.0316 3.7668 1.9781 3.7668 2.0096 0 4.3665-3.0724 5.0188-4.1456 1.231-1.9991 2.0307-5.0504.3577-4.6295-.8206.1999-1.494 1.1258-1.9149 1.9991-.4314.9049-.6103 1.7676-.6103 1.7676s-.6944.2526-1.6308.947c-.9365.705-1.5467 1.3783-1.5467 1.3783s0-1.452 1.1679-3.8088c1.1574-2.3569 3.2828-3.4301 4.4822-3.5248 1.0943-.0947 2.5042.8312 1.3047 4.2297-1.1889 3.3985-4.7242 7.5336-8.4279 7.5862-3.4195.0526-5.6606-4.3244-.9048-11.9421 5.2293-8.40689 11.416-10.99523 13.4257-11.279311 2.0096-.294608 2.662.599741 2.662.599741s1.6834-.768089 3.8193-.631306c2.4516.168347 4.3455 1.904426 6.8497 3.114426-.6524.64182-1.2732 1.29417-1.8308 1.90443m-9.1328-3.30382s-1.431.5787-3.1039 2.40947c-1.673 1.8413-2.641 3.90355-1.915 4.45068.2736.21044.9049.242 2.0728-.79965.8943-.81017 1.8097-1.87286 2.441-3.38799.7471-1.82025.5051-2.65147.5051-2.68303" fill="#fff"/></svg>

<svg width="77" height="25" viewBox="0 0 77 25" fill="none" xmlns="http://www.w3.org/2000/svg">
<path d="M33.1539 24.638C31.3231 23.3543 29.0925 22.7861 27.0618 22.8703C25.0101 22.9545 24.0947 24.4801 24.0947 24.4801C23.1688 22.8703 21.3485 21.8813 18.5287 21.9023C13.9728 21.9549 9.44847 24.0593 5.86057 24.0593C2.27267 24.0593 -0.0841877 21.9023 -1.41205e-05 18.0619C0.14729 11.3385 5.82901 5.27803 10.0798 2.55291C12.5103 0.985179 14.562 0.511703 15.8983 0.669528C16.8768 0.774745 18.0447 1.90057 17.3082 3.563C16.2245 5.99351 14.7198 5.7936 14.7725 4.62569C14.804 3.86813 15.3091 3.39465 15.6878 3.14213C15.9298 2.97378 16.3507 2.93169 16.5717 2.92117C16.7821 2.7423 16.9504 1.40605 15.2038 1.84796C13.4572 2.28987 11.3529 4.00491 9.34326 6.21447C7.33361 8.43455 4.20867 12.6327 3.44058 17.0308C3.08284 19.0825 3.32484 22.7967 8.1543 22.7546C12.2578 22.723 18.3183 20.0189 23.8737 20.0715C26.0307 20.0926 27.9141 20.6713 29.3766 21.5762C30.8181 22.46 32.5436 23.7541 33.1539 24.638ZM34.4691 12.4433H35.3003C35.3003 12.4433 31.0916 18.5354 28.7032 18.2618C27.3775 18.1145 27.7668 16.4626 27.7668 16.4626C27.7668 16.4626 25.8939 18.6511 24.1894 18.2092C22.6322 17.8094 23.6422 15.221 23.6422 15.221C23.4634 15.2947 20.0964 19.093 17.7396 18.1776C15.267 17.2307 16.5506 14.0531 17.0241 13.0957C17.4134 12.2855 17.8658 11.5069 17.8658 11.5069C17.8658 11.5069 17.4871 11.6121 17.2556 11.6647C17.0241 11.7278 16.6558 11.791 16.6558 11.791C16.6558 11.791 15.4879 13.6954 14.7725 14.6424C14.057 15.5893 11.0162 18.851 9.22752 18.1987C7.43883 17.5463 7.88074 15.0422 8.89082 13.0536C10.5217 9.82341 14.3937 5.85673 16.719 6.44594C19.0758 7.04568 17.1293 10.8756 17.1293 10.8756C17.1293 10.8756 17.5923 10.9387 18.7181 10.1706C20.3384 9.06585 22.4743 6.09873 24.7891 6.44594C25.8729 6.60377 26.8829 7.71907 25.5046 9.83393C25.0627 10.5178 24.3156 11.1176 23.7475 10.5178C23.4002 10.1496 23.7054 9.46567 24.0842 9.00272C24.6102 8.33985 25.3362 8.43455 25.3362 8.43455C25.3362 8.43455 25.715 7.56124 24.747 7.57177C23.9579 7.59281 21.9693 9.41306 20.8435 11.2754C19.8123 12.9694 18.2551 15.8734 19.8229 16.5047C21.2643 17.0834 23.9895 13.8322 25.2626 12.1382C26.5357 10.4337 29.4187 6.5722 31.8281 6.4249C32.6488 6.37229 33.1539 7.12985 33.1539 7.12985L33.4274 6.68794H35.8474C35.8474 6.68794 31.2915 14.3057 30.9338 14.8738C30.6497 15.3263 30.2814 16.3469 31.3126 15.7787C32.3437 15.2105 34.4901 12.4538 34.4901 12.4538M15.7194 11.6752C15.7194 11.6752 15.0776 11.4858 14.4778 11.1071C13.8886 10.7283 13.6151 10.1601 13.5835 10.118C13.5625 10.0759 13.5414 10.118 13.5099 10.1391C13.4888 10.1706 13.3625 10.339 12.4998 11.6016C11.637 12.8642 10.3639 15.463 11.5528 15.905C12.3209 16.189 13.6151 14.8423 14.3095 13.9479C14.9513 13.1167 15.7194 11.8541 15.751 11.7804C15.7825 11.6963 15.751 11.6858 15.7089 11.6647M16.6769 7.62437C16.0351 7.14038 14.4252 8.2662 14.4147 9.41306C14.4042 10.581 15.8772 10.9177 16.0561 10.9282C16.0561 10.9282 16.2244 10.9703 16.2876 10.8335C16.3297 10.7493 16.5296 10.3811 16.7505 9.80237C16.9715 9.21315 17.2556 8.07681 16.6664 7.62437M28.9873 13.9584C29.9658 12.6222 32.6488 7.9295 32.6488 7.9295C32.6488 7.9295 32.6067 7.60333 32.2911 7.58229C31.9228 7.56124 31.302 7.69803 30.0605 9.23419C28.8294 10.7809 27.872 12.0119 27.1775 13.2956C26.4095 14.695 26.0728 15.6735 26.5147 15.947C26.6409 16.0207 26.8303 16.0312 26.9776 15.9891C27.2617 15.9155 27.6405 15.6314 28.1561 15.0317C28.3981 14.7581 28.6716 14.3898 28.9873 13.9479M39.8562 6.68794H37.5519L36.2578 8.79228H38.5515L39.8457 6.68794H39.8562ZM69.9798 22.3337C69.7483 22.3337 69.559 22.4179 69.3906 22.5757C69.2328 22.7441 69.1486 22.9335 69.1486 23.1649C69.1486 23.3964 69.2328 23.5963 69.3906 23.7647C69.5484 23.9225 69.7483 24.0067 69.9798 24.0067C70.2113 24.0067 70.4112 23.9225 70.569 23.7647C70.7374 23.5963 70.811 23.3964 70.811 23.1649C70.811 22.9335 70.7374 22.7441 70.569 22.5757C70.4007 22.4179 70.2113 22.3337 69.9798 22.3337ZM70.9478 23.1649C70.9478 23.4385 70.8531 23.6594 70.6637 23.8488C70.4743 24.0382 70.2534 24.1329 69.9798 24.1329C69.7063 24.1329 69.4853 24.0382 69.2959 23.8488C69.1065 23.6594 69.0118 23.428 69.0118 23.1649C69.0118 22.9019 69.1065 22.6704 69.3064 22.4915C69.4958 22.3022 69.7168 22.2075 69.9903 22.2075C70.2639 22.2075 70.4849 22.3022 70.6743 22.4915C70.8636 22.6809 70.9583 22.9019 70.9583 23.1649M70.2429 22.9545C70.2429 22.8808 70.2218 22.8282 70.1692 22.7967C70.1271 22.7651 70.043 22.7546 69.9483 22.7546H69.7799V23.1439H69.9483C70.0324 23.1439 70.0956 23.1439 70.1376 23.1228C70.2008 23.0913 70.2429 23.0387 70.2429 22.9545ZM69.601 22.6283H69.9693C70.1061 22.6283 70.2008 22.6388 70.2639 22.6704C70.3691 22.723 70.4323 22.8072 70.4323 22.944C70.4323 23.0387 70.3902 23.1123 70.327 23.1544C70.2955 23.1754 70.2429 23.1965 70.1692 23.207C70.2534 23.2175 70.3165 23.2491 70.3481 23.3122C70.3902 23.3648 70.4112 23.428 70.4112 23.4806V23.5542C70.4112 23.5542 70.4112 23.5963 70.4112 23.6279C70.4112 23.6594 70.4112 23.67 70.4112 23.6805L70.2323 23.691C70.2323 23.691 70.2323 23.6805 70.2323 23.67V23.5437C70.2323 23.428 70.2008 23.3438 70.1271 23.3017C70.0956 23.2701 70.0219 23.2596 69.9272 23.2596H69.7799V23.6805H69.5905V22.6178L69.601 22.6283ZM73.7676 2.91065C72.0736 4.00491 69.7168 4.99395 67.4546 4.77299C66.8864 5.36221 66.2762 6.04612 65.6554 6.79316C69.58 7.56124 72.9996 5.14125 74.8303 3.06848C75.9667 1.77431 76.5348 0.627441 76.5348 0.627441C76.5348 0.627441 75.4511 1.82692 73.7676 2.91065ZM67.0548 20.7239C66.7286 21.2395 66.3604 22.239 67.4336 21.6182C68.7383 20.8607 70.6006 18.0409 70.6006 18.0409H71.4423C71.4423 18.0409 70.3376 19.798 68.8856 21.3973C67.5598 22.8703 65.9395 24.2066 64.8031 24.0698C63.4669 23.912 63.8878 22.1654 63.8878 22.1654C63.8878 22.1654 61.9833 24.1961 60.6681 24.0488C58.8899 23.8488 59.4371 21.6498 59.4371 21.6498C59.4371 21.6498 57.4274 24.1224 56.0596 24.0488C53.9132 23.9225 54.4498 21.3026 55.039 19.4718C55.3652 18.4933 55.6598 17.7147 55.6598 17.7147C55.6598 17.7147 55.4388 17.7778 54.9864 17.8409C54.7444 17.8725 54.313 17.9041 54.313 17.9041C54.313 17.9041 53.4187 19.4823 52.7032 20.4293C51.9877 21.3762 48.9469 24.6485 47.1583 23.9961C45.4958 23.3964 46.043 20.8607 47.0109 18.851C48.4103 15.9155 52.3665 11.6963 54.6497 12.2434C57.0066 12.8116 54.7023 17.1255 54.7023 17.1255C54.7023 17.1255 54.7023 17.136 54.7234 17.1465C54.776 17.1676 54.8917 17.1781 55.1758 17.1255C55.6282 17.0413 56.0386 16.8624 56.0386 16.8624C56.0386 16.8624 58.4165 11.8857 61.0469 8.62394C63.6668 5.37273 68.8961 -0.235338 70.9583 1.12196C71.4634 1.44813 71.2319 2.60552 70.5585 3.99439C70.2639 4.08908 69.9483 4.17326 69.6221 4.23639C70.0745 3.41569 70.3796 2.72126 70.4638 2.23726C70.769 0.553789 66.8444 4.0996 64.0456 7.91898C61.2468 11.7384 59.5528 15.2 59.5528 15.2C59.5528 15.2 60.121 14.8738 61.0048 14.1689C61.9307 13.4218 63.1933 12.2644 64.5717 10.8335C65.4976 9.87602 66.5918 8.67654 67.6019 7.34029C67.9071 7.32977 68.2017 7.2982 68.4963 7.24559C67.3599 8.77124 66.171 10.1706 65.1504 11.2018C64.0351 12.3276 62.8251 13.5481 61.7729 14.4424C60.0999 15.8418 58.8058 16.652 58.8058 16.652C58.8058 16.652 56.3437 21.5972 57.68 21.9234C58.4691 22.1022 60.0158 19.7243 60.0158 19.7243C60.0158 19.7243 62.0359 16.631 63.2565 15.2526C64.9189 13.3587 66.3498 12.2644 67.7808 12.2434C68.612 12.2329 69.1065 13.1167 69.1065 13.1167L69.4958 12.5064H71.9158C71.9158 12.5064 67.4125 20.1557 67.0548 20.7344M53.4818 17.7252C53.4818 17.7252 52.9136 17.4727 52.377 17.0203C51.8299 16.5678 51.5563 16.0523 51.5353 16.0102C51.5142 15.9681 51.4932 15.9996 51.4616 16.0312C51.4301 16.0628 51.3354 16.147 50.4726 17.4201C49.6203 18.6827 48.2946 21.2921 49.4941 21.7445C50.2516 22.0286 51.5353 20.6818 52.2402 19.798C52.8821 18.9668 53.4818 17.9146 53.5239 17.8409C53.566 17.7673 53.5239 17.7463 53.4923 17.7252M54.7128 15.5893C54.9338 15.0106 55.2179 13.8637 54.6181 13.4218C53.9868 12.9378 52.377 14.0637 52.3665 15.2105C52.3665 16.389 53.5134 16.9256 53.7869 16.9887C53.9447 17.0308 53.9974 17.0308 54.071 16.9045C54.1236 16.8203 54.4814 16.1785 54.7128 15.5998M68.5804 13.99C68.633 13.9058 68.6541 13.8217 68.6541 13.8217C68.6541 13.8217 68.612 13.4955 68.2964 13.4744C67.9176 13.4534 67.423 13.527 66.0868 15.0001C64.7505 16.4731 63.9509 17.7568 63.2459 19.0299C62.4779 20.4293 62.1832 21.4709 62.6146 21.734C62.7409 21.8076 62.9198 21.8182 63.0776 21.7761C63.3722 21.7024 63.7194 21.4288 64.2245 20.8291C64.4665 20.5555 64.7295 20.1662 65.0451 19.7243C65.9184 18.5249 68.1385 14.737 68.5804 13.969M73.7887 2.92117C72.0947 4.01543 69.7378 5.00447 67.4757 4.78351C66.9075 5.37273 66.2972 6.05664 65.6764 6.80368C69.601 7.57177 73.0206 5.15177 74.8514 3.079C75.9877 1.78483 76.5559 0.637963 76.5559 0.637963C76.5559 0.637963 75.4721 1.83744 73.7887 2.92117ZM62.783 5.76203C60.9206 4.81508 59.5739 3.64717 58.164 2.92117C56.8172 2.22674 55.9439 1.94265 54.8601 2.08996C54.6813 2.111 54.4077 2.19518 54.4077 2.19518C54.4077 2.19518 54.9654 4.0996 52.7453 7.31924C50.4831 10.581 48.4419 10.5599 47.8527 9.65506C47.2424 8.71863 48.0316 6.78264 49.3468 5.07812C50.7251 3.28943 53.1346 1.79535 53.1346 1.79535C53.1346 1.79535 52.3665 1.3324 50.4726 2.39509C48.6313 3.43674 45.4432 5.93038 42.4971 10.1285C39.5511 14.3267 38.9618 16.631 38.541 18.4512C38.1096 20.2715 38.5094 22.218 40.5191 22.218C42.5287 22.218 44.8856 19.1456 45.5379 18.0724C46.7689 16.0733 47.5686 13.022 45.8956 13.4429C45.075 13.6428 44.4016 14.5687 43.9807 15.442C43.5493 16.3469 43.3704 17.2096 43.3704 17.2096C43.3704 17.2096 42.676 17.4622 41.7396 18.1566C40.8031 18.8616 40.1929 19.5349 40.1929 19.5349C40.1929 19.5349 40.1929 18.0829 41.3608 15.7261C42.5182 13.3692 44.6436 12.296 45.843 12.2013C46.9373 12.1066 48.3472 13.0325 47.1477 16.431C45.9588 19.8295 42.4235 23.9646 38.7198 24.0172C35.3003 24.0698 33.0592 19.6928 37.815 12.0751C43.0443 3.66821 49.231 1.07987 51.2407 0.795789C53.2503 0.501181 53.9027 1.39553 53.9027 1.39553C53.9027 1.39553 55.5861 0.627441 57.722 0.764224C60.1736 0.932571 62.0675 2.66865 64.5717 3.87865C63.9193 4.52047 63.2985 5.17282 62.7409 5.78308M53.6081 2.47926C53.6081 2.47926 52.1771 3.05796 50.5042 4.88873C48.8312 6.73003 47.8632 8.79228 48.5892 9.33941C48.8628 9.54985 49.4941 9.58141 50.662 8.53976C51.5563 7.72959 52.4717 6.6669 53.103 5.15177C53.8501 3.33152 53.6081 2.5003 53.6081 2.46874" fill="white"/>
</svg>
